X: 2247
M: C
L: 1/8
K: D
(udB) |\
(uFG) |\
(Ad)dB (AG)FG | Acde f2(FG) |
(Ad)dB (AG)FG | AB=cA G2(FG) |\
(Ad)dB (AG)FG | Acde f2(ef) |\
gefd ecdB | AB=cA G2 |]


